packages/assets/static/images/icons/gps-slash.svg

<svg width="24" height="24" viewBox="0 0 24 24" xmlns="http://www.w3.org/2000/svg">
<path d="M23.2498 12C23.2498 12.1989 23.1708 12.3897 23.0301 12.5303C22.8895 12.671 22.6987 12.75 22.4998 12.75H20.2161C20.1352 13.6572 19.9029 14.5445 19.5289 15.375C19.4697 15.5071 19.3737 15.6192 19.2522 15.6979C19.1308 15.7765 18.9892 15.8184 18.8445 15.8184C18.7387 15.8184 18.6342 15.7957 18.5379 15.7519C18.357 15.67 18.2158 15.5197 18.1455 15.334C18.0752 15.1482 18.0815 14.9421 18.1629 14.7609C18.6989 13.562 18.8737 12.2329 18.6662 10.9362C18.4586 9.63949 17.8776 8.43138 16.9942 7.45968C16.1108 6.48797 14.9634 5.7948 13.6922 5.46496C12.4211 5.13512 11.0814 5.18292 9.837 5.6025C9.74305 5.63696 9.64315 5.65227 9.54319 5.64753C9.44323 5.64278 9.34523 5.61808 9.25497 5.57488C9.1647 5.53168 9.08399 5.47085 9.0176 5.39598C8.9512 5.3211 8.90046 5.2337 8.86836 5.13891C8.83627 5.04413 8.82347 4.94388 8.83071 4.84407C8.83796 4.74426 8.8651 4.64691 8.91055 4.55775C8.956 4.46859 9.01883 4.38943 9.09535 4.32493C9.17186 4.26043 9.26051 4.2119 9.35607 4.18219C9.96936 3.97519 10.6051 3.84176 11.2498 3.78469V1.5C11.2498 1.30109 11.3288 1.11032 11.4695 0.96967C11.6101 0.829018 11.8009 0.75 11.9998 0.75C12.1987 0.75 12.3895 0.829018 12.5301 0.96967C12.6708 1.11032 12.7498 1.30109 12.7498 1.5V3.78469C14.6697 3.96244 16.467 4.80606 17.8304 6.16944C19.1938 7.53282 20.0374 9.3301 20.2151 11.25H22.4998C22.6987 11.25 22.8895 11.329 23.0301 11.4697C23.1708 11.6103 23.2498 11.8011 23.2498 12ZM20.0548 19.7456C20.1224 19.8183 20.175 19.9036 20.2094 19.9967C20.2438 20.0898 20.2594 20.1888 20.2552 20.288C20.2511 20.3871 20.2273 20.4845 20.1852 20.5744C20.1432 20.6643 20.0837 20.7449 20.0103 20.8117C19.9368 20.8784 19.8509 20.93 19.7574 20.9632C19.6639 20.9965 19.5647 21.0109 19.4656 21.0056C19.3665 21.0002 19.2694 20.9753 19.18 20.9322C19.0906 20.8891 19.0107 20.8286 18.9448 20.7544L16.9686 18.5841C15.7425 19.5116 14.2809 20.0767 12.7498 20.2153V22.5C12.7498 22.6989 12.6708 22.8897 12.5301 23.0303C12.3895 23.171 12.1987 23.25 11.9998 23.25C11.8009 23.25 11.6101 23.171 11.4695 23.0303C11.3288 22.8897 11.2498 22.6989 11.2498 22.5V20.2153C9.32992 20.0376 7.53264 19.1939 6.16926 17.8306C4.80588 16.4672 3.96226 14.6699 3.7845 12.75H1.49982C1.3009 12.75 1.11014 12.671 0.969487 12.5303C0.828834 12.3897 0.749817 12.1989 0.749817 12C0.749817 11.8011 0.828834 11.6103 0.969487 11.4697C1.11014 11.329 1.3009 11.25 1.49982 11.25H3.7845C3.95096 9.45212 4.7006 7.75795 5.91919 6.42562L3.94482 4.25437C3.87719 4.18173 3.82466 4.09639 3.79026 4.00329C3.75586 3.9102 3.74028 3.8112 3.74442 3.71204C3.74857 3.61288 3.77235 3.51552 3.81439 3.42562C3.85644 3.33572 3.91591 3.25505 3.98936 3.18831C4.06281 3.12156 4.14877 3.07005 4.24228 3.03677C4.33578 3.00349 4.43495 2.9891 4.53406 2.99443C4.63316 2.99976 4.73023 3.02471 4.81962 3.06783C4.90901 3.11095 4.98895 3.17138 5.05482 3.24563L20.0548 19.7456ZM15.9561 17.4675L6.93732 7.54219C5.84757 8.7892 5.25428 10.3933 5.27032 12.0493C5.28637 13.7053 5.91064 15.2976 7.02434 16.5233C8.13805 17.7489 9.66347 18.5224 11.3104 18.6965C12.9573 18.8706 14.6107 18.4332 15.9561 17.4675Z"/>
</svg>

<svg viewBox="0 0 24 24" xmlns="http://www.w3.org/2000/svg" aria-hidden="true" fill="currentColor"><path d="M23.25 12a.75.75 0 0 1-.75.75h-2.284a8.2 8.2 0 0 1-.687 2.625.75.75 0 0 1-1.384-.041.75.75 0 0 1 .018-.573 6.756 6.756 0 0 0-8.326-9.158.75.75 0 1 1-.48-1.42 8.2 8.2 0 0 1 1.893-.398V1.5a.75.75 0 1 1 1.5 0v2.285a8.26 8.26 0 0 1 7.465 7.465H22.5a.75.75 0 0 1 .75.75m-3.195 7.746a.751.751 0 1 1-1.11 1.008l-1.976-2.17a8.2 8.2 0 0 1-4.22 1.631V22.5a.75.75 0 1 1-1.5 0v-2.285a8.26 8.26 0 0 1-7.465-7.465H1.5a.75.75 0 1 1 0-1.5h2.284A8.28 8.28 0 0 1 5.92 6.426L3.945 4.254a.75.75 0 1 1 1.11-1.008zm-4.099-2.278L6.937 7.542a6.75 6.75 0 0 0 9.02 9.926"/></svg>
